public/primaries/FlashOff.svg

<svg id="Layer_1" data-name="Layer 1" xmlns="http://www.w3.org/2000/svg" width="64" height="64" viewBox="0 0 64 64">
  <defs>
    <style>
      .cls-1 {
        fill-rule: evenodd;
      }
    </style>
  </defs>
  <title>Icons 200</title>
  <path class="cls-1" d="M16.19,35.8242a2.002,2.002,0,0,1,.32-2.1455l4.6906-5.3335a0.9988,0.9988,0,0,1,1.4565-.0467L36.154,41.7966a1,1,0,0,1,.0439,1.368L25.5073,55.3213a1.9987,1.9987,0,0,1-2.97.035,2.08,2.08,0,0,1-.3728-2.1367L28.1359,37H18.0109A1.9987,1.9987,0,0,1,16.19,35.8242ZM53.4192,53.405a2,2,0,0,1-2.8291,0L10.5816,13.3929A2,2,0,0,1,13.41,10.5637L53.4192,50.5758A2.0008,2.0008,0,0,1,53.4192,53.405Zm-5.606-25.2287a1.9987,1.9987,0,0,1-.3212,2.1449l-4.6768,5.3182a0.9988,0.9988,0,0,1-1.4566.0468L27.8625,22.188a1,1,0,0,1-.0439-1.3679L38.4961,8.6787a2,2,0,0,1,2.972-.0343,2.0724,2.0724,0,0,1,.3733,2.13L35.8672,27H45.9921A1.9973,1.9973,0,0,1,47.8132,28.1763Z"/>
</svg>

<svg id="Layer_1" data-name="Layer 1" xmlns="http://www.w3.org/2000/svg" width="64" height="64" viewBox="0 0 64 64"><defs><style>.cls-1{fill-rule:evenodd}</style></defs><title>Icons 200</title><path class="cls-1" d="M16.19 35.824a2.002 2.002 0 0 1 .32-2.145l4.69-5.334a.999.999 0 0 1 1.457-.047l13.497 13.499a1 1 0 0 1 .044 1.368L25.508 55.32a1.999 1.999 0 0 1-2.97.035 2.08 2.08 0 0 1-.373-2.136L28.134 37H18.012a1.999 1.999 0 0 1-1.821-1.176zm37.23 17.581a2 2 0 0 1-2.83 0L10.582 13.393a2 2 0 0 1 2.828-2.83l40.01 40.013a2 2 0 0 1 0 2.829zm-5.607-25.229a1.999 1.999 0 0 1-.321 2.145l-4.677 5.318a.999.999 0 0 1-1.456.047L27.862 22.188a1 1 0 0 1-.043-1.368L38.496 8.68a2 2 0 0 1 2.972-.035 2.072 2.072 0 0 1 .373 2.13L35.867 27h10.125a1.997 1.997 0 0 1 1.821 1.176z"/></svg>
